X:206
T:Andy Dejarlis Jig
T:Tom Trainor's
S:Rosa's Session, 30/12/00
Z:Nigel Gatherer
M:6/8
L:1/8
K:E
z|EGB EGB|EGB c2 B|EGB EGB|=DFA B2 A|EGB EGB|
EGB c2 a|gfe Bcd|e3 e2::a|g2 g efg|aga c2 e|f3 fge|
dcB c2 B|gbg efg|aga c2 e|fgf Bcd|e3 e2:|
<end>
<start>
